X: 69
T:Davie's Brae
% Nottingham Music Database
S:Trad, arr Phil Rowe
M:6/8
K:F
|:B|"F"Acc fcc|"Bb"def "F"cAF|"G7"GGG g2f|"C"ecc c2B|
"F"Acc fcc|"Bb"def "F"cAF|"Gm"GAB "C7"cde|"F"f3 f2::
"A7"e|"Dm"def A2A|"Dm"def A2A|"Dm"def "G7"g2f|"C"ecc cde|
"F"f2f "C"cde|"Dm"fed "Am"cBA|"Gm"GAB "C7"cde|"F"f3 f2:|


